dist/assets/svg/form/type-ticket.svg

<svg xmlns="http://www.w3.org/2000/svg" width="15" height="15" fill="none" viewBox="0 0 15 15"><path fill="#030303" fill-rule="evenodd" d="M8.33333 5.41667H12.5V3.75H8.33333V5.41667ZM8.33333 11.25H12.5V9.58333H8.33333V11.25ZM13.3333 15H1.66667C0.75 15 0 14.25 0 13.3333V1.66667C0 0.75 0.75 0 1.66667 0H13.3333C14.25 0 15 0.75 15 1.66667V13.3333C15 14.25 14.25 15 13.3333 15ZM2.5 6.66667H6.66667V2.5H2.5V6.66667ZM3.33333 3.33333H5.83333V5.83333H3.33333V3.33333ZM2.5 12.5H6.66667V8.33333H2.5V12.5ZM3.33333 9.16667H5.83333V11.6667H3.33333V9.16667Z" clip-rule="evenodd"/></svg>

<svg xmlns="http://www.w3.org/2000/svg" width="15" height="15" fill="none" viewBox="0 0 15 15"><path fill="#030303" fill-rule="evenodd" d="M8.333 5.417H12.5V3.75H8.333zm0 5.833H12.5V9.583H8.333zm5 3.75H1.667C.75 15 0 14.25 0 13.333V1.667C0 .75.75 0 1.667 0h11.666C14.25 0 15 .75 15 1.667v11.666C15 14.25 14.25 15 13.333 15M2.5 6.667h4.167V2.5H2.5zm.833-3.334h2.5v2.5h-2.5zM2.5 12.5h4.167V8.333H2.5zm.833-3.333h2.5v2.5h-2.5z" clip-rule="evenodd"/></svg>
